X: 30681
T: LADY LUCY CAMPBELL'S STRATHSPEY
C:
%R: strathspey, reel
B: Elias Howe "The Musician's Companion" Part 3 1844 p.68 #1
S: http://imslp.org/wiki/The_Musician's_Companion_(Howe,_Elias)
Z: 2015 John Chambers <jc:trillian.mit.edu>
M: C|
L: 1/8
K: G
% - - - - - - - - - - - - - - - - - - - - - - - - -
g |\
d<Gd>B dGdB | dGdB eAAB |\
dGdB gaba | ge e/d/c/B/ dBB :: b |\
gedB gaba | gedB aAAb |\
gedB gaba | g>e e/d/c/B/ dGG :|
|: e |\
dG d/c/B dG d/c/B | dG d/c/B eAAB |\
dA d/c/B gaba | g>e e/d/c/B/ dGG :: b |\
gbdb gbdb | gbdb aAAb |\
gbdb gaba | g>e e/d/c/B/ dGG :|
|: B |\
DG B/A/G dG B/A/G | DG B/A/G eAAB |\
DG B/A/G dG B/A/G | g>e e/d/c/B/ dGG :: B/c/ |\
dedB GABG | AcBd AA,A,B |\
dedB GABG | G>E E/D/C/B,/ DG,G, :|
% - - - - - - - - - - - - - - - - - - - - - - - - -
